public/assets/img/copy.svg

<svg width="24" height="24" viewBox="0 0 24 24" fill="none" xmlns="http://www.w3.org/2000/svg">
<path fill-rule="evenodd" clip-rule="evenodd" d="M13.6719 22.3906C15.3984 22.3906 16.3203 21.4609 16.3203 19.7266V18.2891H17.6094C19.3359 18.2891 20.2578 17.3516 20.2578 15.6172V9.57031C20.2578 8.48438 20.0234 7.78906 19.3828 7.125L15.5234 3.19531C14.9062 2.57031 14.1719 2.32031 13.2109 2.32031H10.3203C8.60156 2.32031 7.67969 3.25 7.67969 4.98438V6.42969H6.39062C4.66406 6.42969 3.74219 7.35938 3.74219 9.09375V19.7266C3.74219 21.4688 4.66406 22.3906 6.39062 22.3906H13.6719ZM17.4141 16.5H16.3203V13.7969C16.3203 12.7109 16.1719 12.1719 15.4922 11.4844L11.3125 7.25C10.75 6.67188 10.2422 6.47656 9.46875 6.4375V5.14844C9.46875 4.47656 9.80469 4.10938 10.5156 4.10938H13.6172V7.59375C13.6172 8.61719 14.1953 9.1875 15.2109 9.1875H18.4688V15.4609C18.4688 16.1328 18.125 16.5 17.4141 16.5ZM15.4062 7.77344H18L15.0312 4.76562V7.39844C15.0312 7.65625 15.1406 7.77344 15.4062 7.77344ZM13.4766 20.6094H6.57812C5.86719 20.6094 5.53125 20.2422 5.53125 19.5625V9.25781C5.53125 8.58594 5.86719 8.21875 6.57812 8.21875H8.82812V12.25C8.82812 13.5 9.4375 14.0938 10.6719 14.0938H14.5312V19.5625C14.5312 20.2422 14.1875 20.6094 13.4766 20.6094ZM10.8203 12.5859H14.3438L10.3438 8.52344V12.1016C10.3438 12.4375 10.4922 12.5859 10.8203 12.5859Z" fill="#E0E0FF" fill-opacity="0.4"/>
</svg>

<svg width="24" height="24" fill="none" xmlns="http://www.w3.org/2000/svg"><path fill-rule="evenodd" clip-rule="evenodd" d="M13.672 22.39c1.726 0 2.648-.93 2.648-2.663v-1.438h1.29c1.726 0 2.648-.937 2.648-2.672V9.57c0-1.086-.235-1.78-.875-2.445l-3.86-3.93c-.617-.625-1.351-.875-2.312-.875h-2.89c-1.72 0-2.641.93-2.641 2.664V6.43H6.39c-1.726 0-2.648.93-2.648 2.664v10.633c0 1.742.922 2.664 2.649 2.664h7.28Zm3.742-5.89H16.32v-2.703c0-1.086-.148-1.625-.828-2.313l-4.18-4.234c-.562-.578-1.07-.773-1.843-.813V5.149c0-.671.336-1.039 1.047-1.039h3.101v3.485c0 1.023.578 1.593 1.594 1.593h3.258v6.274c0 .672-.344 1.039-1.055 1.039Zm-2.008-8.727H18l-2.969-3.007v2.632c0 .258.11.375.375.375Zm-1.93 12.836H6.579c-.71 0-1.047-.367-1.047-1.047V9.258c0-.672.336-1.04 1.047-1.04h2.25v4.032c0 1.25.61 1.844 1.844 1.844h3.86v5.469c0 .68-.345 1.046-1.055 1.046Zm-2.656-8.023h3.524l-4-4.063v3.579c0 .335.148.484.476.484Z" fill="#000" fill-opacity=".4"/></svg>
